src/assets/instagram-icon.svg

<svg width="24" height="24" viewBox="0 0 24 24" fill="none" xmlns="http://www.w3.org/2000/svg">
<path d="M13.0286 2.00099C13.7583 1.99819 14.488 2.00552 15.2176 2.02299L15.4116 2.02999C15.6356 2.03799 15.8566 2.04799 16.1236 2.05999C17.1876 2.10999 17.9136 2.27799 18.5506 2.52499C19.2106 2.77899 19.7666 3.12299 20.3226 3.67899C20.831 4.17859 21.2244 4.78293 21.4756 5.44999C21.7226 6.08699 21.8906 6.81399 21.9406 7.87799C21.9526 8.14399 21.9626 8.36599 21.9706 8.58999L21.9766 8.78399C21.9943 9.51318 22.002 10.2426 21.9996 10.972L22.0006 11.718V13.028C22.003 13.7577 21.9954 14.4875 21.9776 15.217L21.9716 15.411C21.9636 15.635 21.9536 15.856 21.9416 16.123C21.8916 17.187 21.7216 17.913 21.4756 18.55C21.2252 19.2177 20.8317 19.8226 20.3226 20.322C19.8225 20.8303 19.2179 21.2237 18.5506 21.475C17.9136 21.722 17.1876 21.89 16.1236 21.94C15.8566 21.952 15.6356 21.962 15.4116 21.97L15.2176 21.976C14.4881 21.9938 13.7583 22.0014 13.0286 21.999L12.2826 22H10.9736C10.2438 22.0025 9.5141 21.9948 8.78458 21.977L8.59058 21.971C8.35319 21.9624 8.11585 21.9524 7.87858 21.941C6.81458 21.891 6.08858 21.721 5.45058 21.475C4.78326 21.2243 4.17881 20.8308 3.67958 20.322C3.17062 19.8223 2.7768 19.2175 2.52558 18.55C2.27858 17.913 2.11058 17.187 2.06058 16.123C2.04944 15.8857 2.03944 15.6484 2.03058 15.411L2.02558 15.217C2.00714 14.4875 1.99881 13.7577 2.00058 13.028V10.972C1.99779 10.2426 2.00512 9.51318 2.02258 8.78399L2.02958 8.58999C2.03758 8.36599 2.04758 8.14399 2.05958 7.87799C2.10958 6.81299 2.27758 6.08799 2.52458 5.44999C2.77595 4.78261 3.17054 4.17843 3.68058 3.67999C4.17947 3.17074 4.78354 2.77656 5.45058 2.52499C6.08858 2.27799 6.81358 2.10999 7.87858 2.05999L8.59058 2.02999L8.78458 2.02499C9.51376 2.00656 10.2432 1.99823 10.9726 1.99999L13.0286 2.00099ZM12.0006 7.00099C11.3381 6.99162 10.6803 7.11401 10.0656 7.36105C9.45077 7.6081 8.89122 7.97487 8.41942 8.44004C7.94762 8.90522 7.57298 9.45952 7.31726 10.0707C7.06155 10.682 6.92987 11.3379 6.92987 12.0005C6.92987 12.663 7.06155 13.319 7.31726 13.9302C7.57298 14.5414 7.94762 15.0958 8.41942 15.5609C8.89122 16.0261 9.45077 16.3929 10.0656 16.6399C10.6803 16.887 11.3381 17.0094 12.0006 17C13.3267 17 14.5984 16.4732 15.5361 15.5355C16.4738 14.5978 17.0006 13.3261 17.0006 12C17.0006 10.6739 16.4738 9.40213 15.5361 8.46445C14.5984 7.52677 13.3267 7.00099 12.0006 7.00099ZM12.0006 9.00099C12.3991 8.99364 12.7951 9.06578 13.1654 9.21319C13.5357 9.3606 13.8729 9.58033 14.1574 9.85953C14.4418 10.1387 14.6678 10.4718 14.822 10.8393C14.9763 11.2068 15.0558 11.6014 15.0558 12C15.0559 12.3986 14.9766 12.7931 14.8224 13.1607C14.6683 13.5283 14.4424 13.8614 14.1581 14.1407C13.8737 14.42 13.5366 14.6399 13.1663 14.7874C12.796 14.9349 12.4001 15.0072 12.0016 15C11.2059 15 10.4429 14.6839 9.88026 14.1213C9.31765 13.5587 9.00158 12.7956 9.00158 12C9.00158 11.2043 9.31765 10.4413 9.88026 9.87867C10.4429 9.31606 11.2059 8.99999 12.0016 8.99999L12.0006 9.00099ZM17.2506 5.50099C16.928 5.5139 16.6229 5.65114 16.3992 5.88396C16.1755 6.11678 16.0506 6.42712 16.0506 6.74999C16.0506 7.07285 16.1755 7.38319 16.3992 7.61601C16.6229 7.84884 16.928 7.98607 17.2506 7.99899C17.5821 7.99899 17.9 7.86729 18.1345 7.63287C18.3689 7.39845 18.5006 7.08051 18.5006 6.74899C18.5006 6.41747 18.3689 6.09952 18.1345 5.8651C17.9 5.63068 17.5821 5.49899 17.2506 5.49899V5.50099Z" fill="#240000"/>
</svg>

<svg xmlns="http://www.w3.org/2000/svg" width="24" height="24" fill="none">
  <path fill="#240000" d="M13.029 2.001c.73-.003 1.459.005 2.189.022l.194.007c.224.008.445.018.712.03 1.064.05 1.79.218 2.427.465.66.254 1.216.598 1.772 1.154.508.5.901 1.104 1.153 1.771.247.637.415 1.364.465 2.428.012.266.022.488.03.712l.006.194c.017.73.025 1.459.023 2.188v2.056c.003.73-.005 1.46-.022 2.189l-.006.194c-.008.224-.018.445-.03.712-.05 1.064-.22 1.79-.466 2.427a4.885 4.885 0 0 1-1.153 1.772c-.5.508-1.105.902-1.772 1.153-.637.247-1.363.415-2.427.465-.267.012-.488.022-.712.03l-.194.006c-.73.018-1.46.025-2.19.023l-.745.001h-1.31c-.73.003-1.459-.005-2.188-.023l-.194-.006a60.403 60.403 0 0 1-.712-.03c-1.064-.05-1.79-.22-2.428-.466a4.89 4.89 0 0 1-1.771-1.153 4.904 4.904 0 0 1-1.154-1.772c-.247-.637-.415-1.363-.465-2.427a74.175 74.175 0 0 1-.03-.712l-.005-.194c-.019-.73-.027-1.46-.025-2.189v-2.056c-.003-.73.004-1.459.022-2.188l.007-.194c.008-.224.018-.446.03-.712.05-1.065.218-1.79.465-2.428A4.88 4.88 0 0 1 3.68 3.68a4.897 4.897 0 0 1 1.77-1.155c.638-.247 1.363-.415 2.428-.465l.712-.03.194-.005A79.05 79.05 0 0 1 10.973 2l2.056.001Zm-1.028 5A5 5 0 1 0 12 17a5 5 0 0 0 0-9.999Zm0 2A3 3 0 1 1 12 15a3 3 0 0 1 0-6v.001Zm5.25-3.5a1.25 1.25 0 0 0 0 2.498 1.25 1.25 0 0 0 0-2.5v.002Z"/>
</svg>
